korla/apps/scalable/synergy.svg

<svg width="48" height="48" xmlns="http://www.w3.org/2000/svg">
 <circle cx="24" cy="25" r="20" opacity=".2"/>
 <path d="m24 4a20 20 0 0 1 20 20h-20z" fill="#196260"/>
 <path d="m24 44a20 20 0 0 1-20-20h20z" fill="#97c33d"/>
 <path d="m4 24 4.0000002 3 3.9999998-3z" fill="#5d7dbd"/>
 <path d="m24 4a20 20 0 0 0-20 20h20z" fill="#5d7dbd"/>
 <path d="m44 24-4.000001-3-3.999999 3z" fill="#3f96b9"/>
 <path d="m24 44a20 20 0 0 0 20-20h-20z" fill="#3f96b9"/>
 <path d="m24 44 3-4.000001-3-3.999999z" fill="#97c33d"/>
 <path d="m24 4-3 4.0000002 3 3.9999998z" fill="#196260"/>
 <circle cx="24" cy="25" r="12" opacity=".2"/>
 <circle cx="24" cy="24" r="12" fill="#f9f9f9"/>
 <path d="m24 4a20 20 0 0 0 -20 20 20 20 0 0 0 .0214844.582031 20 20 0 0 1 19.9785156-19.582031 20 20 0 0 1 19.978516 19.417969 20 20 0 0 0 .021484-.417969 20 20 0 0 0 -20-20z" fill="#fff" opacity=".1"/>
</svg>

<svg xmlns="http://www.w3.org/2000/svg" width="48" height="48" version="1.1">
 <circle style="opacity:0.2" cx="24" cy="25" r="20"/>
 <path style="fill:#196260" d="M 24,4 A 20,20 0 0 1 44,24 H 24 Z"/>
 <path style="fill:#97c33d" d="M 24,44 A 20,20 0 0 1 4,24 h 20 z"/>
 <path style="fill:#5d7dbd" d="M 4,24 8.0000002,27 12,24 Z"/>
 <path style="fill:#5d7dbd" d="M 24,4 A 20,20 0 0 0 4,24 h 20 z"/>
 <path style="fill:#3f96b9" d="M 44,24 39.999999,21 36,24 Z"/>
 <path style="fill:#3f96b9" d="M 24,44 A 20,20 0 0 0 44,24 H 24 Z"/>
 <path style="fill:#97c33d" d="M 24,44 27,39.999999 24,36 Z"/>
 <path style="fill:#196260" d="M 24,4 21,8.0000002 24,12 Z"/>
 <circle style="opacity:0.2" cx="24" cy="25" r="12"/>
 <circle style="fill:#f9f9f9" cx="24" cy="24" r="12"/>
 <path style="opacity:0.1;fill:#ffffff" d="M 24 4 A 20 20 0 0 0 4 24 A 20 20 0 0 0 4.0214844 24.582031 A 20 20 0 0 1 24 5 A 20 20 0 0 1 43.978516 24.417969 A 20 20 0 0 0 44 24 A 20 20 0 0 0 24 4 z"/>
</svg>
